X: 82
M:2/4
L:1/16
K:Edor
udc|BE~E2 BAFA|((3Bcd).A.F (DF).A.c|BE~E2 BABc|dBAF Edcd|
{G}FE|DFAc d2cA|BdAd BdAF|DFAc d2fe|dBAF EGFE|


